X:1
T: The Low Backed Car
C:
R:Jig
Q:128
K:G
M:6/8
L:1/16
D2|G4B2 B4d2|d4c2 A4F2|G4B2 d4d2|d6-d4B2|c2B2c2 A4A2|B2A2B2 G2A2B2|c4A2 G4F2|G6-G4D2|
G4B2 B4d2|d4c2 A4F2|G4B2 d4d2|d6-d4B2|c2B2c2 A4A2|B2A2B2 G2A2B2|c4A2 G4F2|G6-G4B2|
G4g2 g4e2|e4d2 d4B2|G4g2 g4e2|d6c2B2A2|G4g2 g4e2|e4d2 d2c2B2|A4G2 A4B2|d6c2B2A2|
G2E2D2 G4G2|G6-G4B2|A2G2E2 A4A2|A6-A2B2c2|d2c2B2 d2c2B2|g2f2e2 d2B2A2|G2E2D2 G4G2|G6-G4||
